e.svg

<svg xmlns="http://www.w3.org/2000/svg" width="964" height="566" fill="none" viewBox="0 0 964 566"><g fill="#fff" clip-path="url(#a)"><path d="m136.532 197.41-19.307-27.61 165.493 23.468 143.428-40.034-4.137 6.903-128.258 48.317-107.571 2.761z"/><path d="m95.159 135.288 19.307 30.371 169.631 23.468 132.395-37.273-128.257 23.468z"/><path d="M91.022 131.146 49.648 70.405l237.207 86.971 128.258-9.664-125.499 23.469z"/><path d="m0 0 45.51 64.883 241.345 86.971 133.774-8.283-132.394-2.761L23.445 6.902z"/><path d="m49.648 15.185 239.966 120.103 135.153 4.141zm150.323 200.171 60.681 17.946 60.681-9.663 100.676-56.6v-4.141l-128.258 49.697z"/><path d="m270.306 234.683 42.753 12.424 35.857-17.946 73.093-53.839v-4.142l-100.676 56.6z"/><path d="m318.575 248.488 22.066 5.522 39.994-20.708 41.374-53.839-66.198 49.698z"/><path d="m344.778 256.771 20.687 5.522 37.236-30.371 17.928-44.176-37.236 48.317z"/><path d="m369.602 263.673 19.308 5.522 33.099-16.566 1.379-57.98-17.929 40.034zm457.866-64.883 19.307-27.61-165.493 23.469-143.428-40.034 4.137 6.902 128.258 48.317 107.571 2.761z"/><path d="m868.841 136.668-19.307 30.371-169.631 23.468-132.395-37.273 128.257 23.468z"/><path d="m872.979 132.527 41.373-60.742-237.208 86.971-128.257-9.663 125.499 23.468z"/><path d="m964 1.38-45.511 64.883-241.345 86.971-133.774-8.283 132.395-2.761L940.555 8.283z"/><path d="M914.352 16.566 674.386 136.668l-135.153 4.142zM764.029 216.737l-60.681 17.946-60.681-9.663-100.676-56.6v-4.142l128.258 49.698z"/><path d="m693.694 236.063-42.753 12.425-35.857-17.946-73.093-53.84v-4.141l100.676 56.6z"/><path d="m645.425 249.868-22.066 5.522-39.994-20.707-41.374-53.839 66.198 49.697z"/><path d="m619.222 258.151-20.687 5.522-37.236-30.371-17.929-44.175 37.237 48.317z"/><path d="m594.398 265.054-19.308 5.522-33.099-16.566-1.379-57.981 17.929 40.034zm-60.681 8.283V158.756l-27.583 30.371v22.088l-24.824 17.946-24.824-17.946v-22.088l-27.582-30.371v114.581l39.994 45.556v41.414h-6.895l2.758 8.283 4.137-4.141h8.275l4.137 5.522 4.138-5.522h8.274l4.138 4.141 2.758-8.283h-6.896v-42.795zm-48.269-5.522v92.492h-6.896v-92.492l-26.203-23.469v-26.229l28.961 20.707 29.651-22.087v25.539z"/><path d="m430.283 154.615 27.583 30.37 20.686-19.326v-13.805l-15.17-20.708zm102.055 0-27.583 30.37-20.686-19.326v-13.805l15.17-20.708zM428.904 278.859l24.824 56.6-4.137 19.326 15.17-2.761v-31.751zm104.813 0-24.824 56.6 4.137 19.326-15.17-2.761v-31.751z"/><path d="m506.134 73.166 17.929 16.566-27.582-38.654-31.72-16.566-35.857-27.61-13.791 6.903h9.654l16.549 23.468-5.516 93.873 45.51-23.468 46.89 28.99zm-34.477-20.707-5.517-1.38v-5.523l11.033 9.664zm-234.45 367.209 41.374 26.23 177.905-85.591zm89.643 9.664 24.824 17.946 107.571-81.449zm-2.758 45.556 28.961 17.946 108.95-122.863zm46.889 6.902 24.824 11.044 68.956-118.722zm19.308 31.751 27.582 16.566 52.407-154.614zm84.126-135.287-23.445 67.644 13.791 4.141zm5.516-5.522-22.065 182.224L478.552 566zm5.517 0v153.234l17.928-6.903zm5.516 5.522 22.066 172.561 30.34-17.947zm5.517-1.381 23.445 70.405 11.032-11.044zm4.137-4.141 78.609 138.048 27.583-16.565zm4.137-2.761 66.198 75.927 15.17-13.805zm2.759-5.522 137.911 106.297 35.857-22.087zm1.379-4.142L653.7 429.332l28.961-22.088z"/></g><defs><clipPath id="a"><path fill="#fff" d="M0 0h964v566H0z"/></clipPath></defs></svg>

<svg width="964" height="566" viewBox="0 0 964 566" fill="none" xmlns="http://www.w3.org/2000/svg">
<g clip-path="url(#clip0_348_2301)">
<path d="M136.532 197.41L117.225 169.8L282.718 193.268L426.146 153.234L422.009 160.137L293.751 208.454L186.18 211.215L136.532 197.41Z" fill="white"/>
<path d="M95.1588 135.288L114.466 165.659L284.097 189.127L416.492 151.854L288.235 175.322L95.1588 135.288Z" fill="white"/>
<path d="M91.0215 131.146L49.6481 70.4049L286.855 157.376L415.113 147.712L289.614 171.181L91.0215 131.146Z" fill="white"/>
<path d="M0 0L45.5107 64.8829L286.855 151.854L420.629 143.571L288.235 140.81L23.4449 6.90244L0 0Z" fill="white"/>
<path d="M49.6481 15.1854L289.614 135.288L424.767 139.429L49.6481 15.1854Z" fill="white"/>
<path d="M199.971 215.356L260.652 233.302L321.333 223.639L422.009 167.039V162.898L293.751 212.595L199.971 215.356Z" fill="white"/>
<path d="M270.306 234.683L313.059 247.107L348.916 229.161L422.009 175.322V171.18L321.333 227.78L270.306 234.683Z" fill="white"/>
<path d="M318.575 248.488L340.641 254.01L380.635 233.302L422.009 179.463L355.811 229.161L318.575 248.488Z" fill="white"/>
<path d="M344.778 256.771L365.465 262.293L402.701 231.922L420.629 187.746L383.393 236.063L344.778 256.771Z" fill="white"/>
<path d="M369.602 263.673L388.91 269.195L422.009 252.629L423.388 194.649L405.459 234.683L369.602 263.673Z" fill="white"/>
<path d="M827.468 198.79L846.775 171.18L681.282 194.649L537.854 154.615L541.991 161.517L670.249 209.834L777.82 212.595L827.468 198.79Z" fill="white"/>
<path d="M868.841 136.668L849.534 167.039L679.903 190.507L547.508 153.234L675.765 176.702L868.841 136.668Z" fill="white"/>
<path d="M872.979 132.527L914.352 71.7854L677.144 158.756L548.887 149.093L674.386 172.561L872.979 132.527Z" fill="white"/>
<path d="M964 1.38049L918.489 66.2634L677.144 153.234L543.37 144.951L675.765 142.19L940.555 8.28293L964 1.38049Z" fill="white"/>
<path d="M914.352 16.5658L674.386 136.668L539.233 140.81L914.352 16.5658Z" fill="white"/>
<path d="M764.029 216.737L703.348 234.683L642.667 225.02L541.991 168.42V164.278L670.249 213.976L764.029 216.737Z" fill="white"/>
<path d="M693.694 236.063L650.941 248.488L615.084 230.542L541.991 176.702V172.561L642.667 229.161L693.694 236.063Z" fill="white"/>
<path d="M645.425 249.868L623.359 255.39L583.365 234.683L541.991 180.844L608.189 230.541L645.425 249.868Z" fill="white"/>
<path d="M619.222 258.151L598.535 263.673L561.299 233.302L543.37 189.127L580.607 237.444L619.222 258.151Z" fill="white"/>
<path d="M594.398 265.054L575.09 270.576L541.991 254.01L540.612 196.029L558.541 236.063L594.398 265.054Z" fill="white"/>
<path d="M533.717 273.337V158.756L506.134 189.127V211.215L481.31 229.161L456.486 211.215V189.127L428.904 158.756V273.337L468.898 318.893V360.307H462.003L464.761 368.59L468.898 364.449H477.173L481.31 369.971L485.448 364.449H493.722L497.86 368.59L500.618 360.307H493.722V317.512L533.717 273.337ZM485.448 267.815V360.307H478.552V267.815L452.349 244.346V218.117L481.31 238.824L510.961 216.737V242.276L485.448 267.815Z" fill="white"/>
<path d="M430.283 154.615L457.866 184.985L478.552 165.659V151.854L463.382 131.146L430.283 154.615Z" fill="white"/>
<path d="M532.338 154.615L504.755 184.985L484.069 165.659V151.854L499.239 131.146L532.338 154.615Z" fill="white"/>
<path d="M428.904 278.859L453.728 335.459L449.591 354.785L464.761 352.024V320.273L428.904 278.859Z" fill="white"/>
<path d="M533.717 278.859L508.893 335.459L513.03 354.785L497.86 352.024V320.273L533.717 278.859Z" fill="white"/>
<path d="M506.134 73.1659L524.063 89.7317L496.481 51.0781L464.761 34.5122L428.904 6.90247L415.113 13.8049H424.767L441.316 37.2732L435.8 131.146L481.31 107.678L528.2 136.668L506.134 73.1659ZM471.657 52.4586L466.14 51.0781V45.5561L477.173 55.2195L471.657 52.4586Z" fill="white"/>
<path d="M237.207 419.668L278.581 445.898L456.486 360.307L237.207 419.668Z" fill="white"/>
<path d="M326.85 429.332L351.674 447.278L459.245 365.829L326.85 429.332Z" fill="white"/>
<path d="M324.092 474.888L353.053 492.834L462.003 369.971L324.092 474.888Z" fill="white"/>
<path d="M370.981 481.79L395.805 492.834L464.761 374.112L370.981 481.79Z" fill="white"/>
<path d="M390.289 513.541L417.871 530.107L470.278 375.493L390.289 513.541Z" fill="white"/>
<path d="M474.415 378.254L450.97 445.898L464.761 450.039L474.415 378.254Z" fill="white"/>
<path d="M479.931 372.732L457.866 554.956L478.552 566L479.931 372.732Z" fill="white"/>
<path d="M485.448 372.732V525.966L503.376 519.063L485.448 372.732Z" fill="white"/>
<path d="M490.964 378.254L513.03 550.815L543.37 532.868L490.964 378.254Z" fill="white"/>
<path d="M496.481 376.873L519.926 447.278L530.958 436.234L496.481 376.873Z" fill="white"/>
<path d="M500.618 372.732L579.227 510.78L606.81 494.215L500.618 372.732Z" fill="white"/>
<path d="M504.755 369.971L570.953 445.898L586.123 432.093L504.755 369.971Z" fill="white"/>
<path d="M507.514 364.449L645.425 470.746L681.282 448.659L507.514 364.449Z" fill="white"/>
<path d="M508.893 360.307L653.7 429.332L682.661 407.244L508.893 360.307Z" fill="white"/>
</g>
<defs>
<clipPath id="clip0_348_2301">
<rect width="964" height="566" fill="white"/>
</clipPath>
</defs>
</svg>
